X:9
T:Mullingar Lea
R:Reel
S:Paddy Canny, Clare (fiddle)
H:Initial B and the low F naturals all slides. The b flat in part two
H:is repeated and presumably intended.
D:Home tape of unknown provenance
M:4/4
N:As played
Z:Bernie Stocks
K:G
A | BG (3.G.G.F GFDE | =F2GF CFAc | (3.B.A.G ~G2 DE=FE | =FAdc BGGA |
BGAG GFDE | =F2~F2 CFAc | BG~G2 DE{G}=FE | =FAdc BGGA ||
{a}gfgd Bcde | =fefc ABce | {a}gfgd Bcdc | dg~g2 _bg~g2 |
gbgd Bcde | =fefc ABcd | {e}de (3.d.c.B DE{G}=FE | =FAdc BGGA ||
<end>
<start>
